X: 175
T: The Innocent Maid
%R: jig
B: Chas & Sam Thompson "Twenty Four Country Dances for the Year 1780", London 1780, p.88 #1
F: http://www.vwml.org/browse/browse-collections-dance-tune-books/browse-thompsons1780
Z: 2014 John Chambers <jc:trillian.mit.edu> (added dance description)
M: 6/8
L: 1/8
K: A
% - - - - - - - - - - - - - - - - - - - - - - - - - - - - -
(c/d/) |\
ecA AGA | ecA AGA | FdB Ged | cBA BGE |\
ecA AGA | ecA AGA | FdB Ged | cAA A2 :|
|: (A//B//c//d//) |\
eca eca | eca edc | fdB BbB | BB,B B2 (A//B//c//d//) |\
eca eca | eca ecA | EAc eca | B>AB A2 :|
% - - - - - - - - - - Dance description - - - - - - - - - -
%%begintext align
%%   Hey contrary sides .|. then Hey on your
%% own sides :|. Lead down two Cu: up again
%% and cast off .|: Right & Left at top :|:
%%endtext

%%sep 1 1 500
%%sep 1 1 500
